X: 1337
T: Mahzun Gönül
C: Kemânî Salih Efendi
O: Turkey
F: http://compmusic.upf.edu/node/140
N: huzzam--sarki--curcuna--mahzun_gonul--kemani_salih_efendi
N: makam= huzzam
N: form= sarki
N: usul= curcuna = 10/8
M: 10/8
L: 1/16
K: C _1/4B _3/4e ^3/4f 
Q: 1/4=192
%%MIDI tuningsystem comma53
B6g4f2 ^3/4e2{g}f6  | ^3/4e2f2 g4 z2e2 f2g4z2  | \
w:  Mah zun  gö *  *  nül   |  hey *  hât  hey *  hât   | 
a4 {_b}g2g4g4g4f2  | f4 e2e2 d2d2 e2f2 e2ed  | 
w:  şâd_ *  *  o la cak   |  mı  *  sa *  nı *  yor  | 
d4 e2d2 c2B2 {c}^A2{c}B4z2  | B6g4f2 ^3/4e2{g}f6  | \
w:  sun   SAZ  |  Mah zun  gö *  *  nül   | 
^3/4e2f2 g4 z2e2 f2g4z2  | 
w:  hey *  hât  hey *  hât   | 
a4 {_b}g2g4g4g4f2  | f4 e2e2 d2d2 e2f2 e2ed  | \
w:  şâd_ *  *  o la cak   |  mı  *  sa *  nı *  yor  | 
d4 e2d2 c2B2 c2d2 e2f2  | 
w:  sun   SAZ  | 
f4 e2e4e4e4d2  | d2e2 f2g2 {a}g2g4a4g2  | \
w:  Vah  *  e sef  ah   |  bî *  ça *  *  re  gön lüm   | 
f4 g6f/g/f/e/ f2g6  | 
w:  ey vah  SAZ  | 
e4 f6e/f/e/d/ e2f7/2e/d2  | d4 c2B4c2 d2{e}d2 {e}c2{d}B2  | \
w:  ey vah  SAZ  |  al *  da nı *  *  yor  | 
B2c2 d2e2 f2fe2de4z2  | 
w:  sun    | 
f4 e2e4e4e4d2  | d2e2 f2g2 {a}g2g4a4g2  | \
w:  Vah  *  e sef  ah   |  bî *  ça *  *  re  gön lüm   | 
f4 g6f/g/f/e/ f2g6  | 
w:  ey vah  SAZ  | 
e4 f6e/f/e/d/ e2f7/2e/d2  | d4 c2B4c2 d2{e}d2 {e}c2{d}B2  | \
w:  ey vah  SAZ  |  al *  da nı *  *  yor  | 
B4 _1/4e2d2 c2B2 {c}^A2{c}B4z2  | 
w:  sun   SAZ  | 
B6g4f2 ^e2{g}f6  | f4 f2g4f2 =e2{f}d6  | \
w:  Bu  ka dar  *  *  cevr_  |  ü  *  ce fâ *  *  ya   | 
d4 c2c2 B2B2 ^A2{c}B6  | a4 g2g2 f2fe f2{f}g2 e2d2  | 
w:  bi *  le *  rek   |  kat *  la *  nı *  *  *  yor  | 
d4 e2d2 c2B2 {c}^A2{c}B6  | B6g4f2 ^e2{g}f6  | \
w:  sun   SAZ  |  Bu  ka dar  *  *  cevr_  | 
f4 f2g4f2 =e2{f}d6  | d4 c2c2 B2B2 ^A2{c}B6  | 
w:  ü  *  ce fâ *  *  ya   |  bi *  le *  rek   | 
a4 g2g2 f2fe f2{f}g2 e2d2  | d4 e2d2 c2B2 c2d2 e2f2  | \
w:  kat *  la *  nı *  *  *  yor  |  sun   SAZ  | 
f4 e2e4e4e4d2  | 
w:  Vah  *  e sef  ah   | 
d2e2 f2g2 {a}g2g4a4g2  | f4 g6f/g/f/e/ f2g6  | \
w:  bî *  ça *  *  re  gön lüm   |  ey vah  SAZ  | 
e4 f6e/f/e/d/ e2f7/2e/d2  | 
w:  ey vah  SAZ  | 
d4 c2B4c2 d2{e}d2 {e}c2{d}B2  | B4 e2d2 c2B2 c2d4z2  | z18  | \
w:  al *  da nı *  *  yor  |  sun   SAZ  |  | 
d4d2_1/4e2dc{d}B{c}^A{c}B6  | 
w:  Ben  ne *  den  *  *  *  *  *  *  düş  | 
d4d2_1/4e2dc{d}B{c}^A{c}B6  | c4d4e2d2a2{a}g2f2  | \
w:  tüm  ne *  den   |  bil mem  böy *  le  *  bir   | 
f2{a}g2f2e2d2e2f2e2ed  | 
w:  a *  teş *  *  pâ *  *  *  re  | 
d6d_1/4ed{e}c{d}B{c}^A{c}B2c2^c2  | \
w:  ye   SAZ  | 
d4d2_1/4e2dc{d}B{c}^A{c}B6  | d4d2_1/4e2dc{d}B{c}^A{c}B6  | 
w:  Ben  ne *  den  *  *  *  *  *  *  düş  |  tüm  ne *  den   | 
c4d4e2d2a2{a}g2f2  | f2{a}g2f2e2d2e2f2e2ed  | z20  | \
w:  bil mem  böy *  le  *  bir   |  a *  teş *  *  pâ *  *  *  re  |  | 
d4 e2d2 c2B2 c2d2 e2f2  | 
w:  ye   SAZ  | 
f4 e2e4e4e4d2  | d2e2 f2g2 {a}g2g4a4g2  | \
w:  Vah  *  e sef  ah   |  bî *  ça *  *  re  gön lüm   | 
f4 g6f/g/f/e/ f2g6  | 
w:  ey vah  SAZ  | 
e4 f6e/f/e/d/ e2f7/2e/d2  | d4 c2B4c2 d2{e}d2 {e}c2{d}B2  | \
w:  ey vah  SAZ  |  al *  da nı *  *  yor  | 
B2c2 d2e2 f2fe2de4z2  | 
w:  sun    | 
f4 e2e4e4e4d2  | d2e2 f2g2 {a}g2g4a4g2  | \
w:  Vah  *  e sef  ah   |  bî *  ça *  *  re  gön lüm   | 
f4 g6f/g/f/e/ f2g6  | 
w:  ey vah  SAZ  | 
e4 f6e/f/e/d/ e2f7/2e/d2  | d4 c2B4c2 d2{e}d2 {e}c2{d}B2  | \
w:  ey vah  SAZ  |  al *  da nı *  *  yor  | 
B4 _1/4e2d2 c2B2 {c}^A2{c}B4z2  | 
w:  sun   SAZ  | 
|


